svg/300/outlined/tv_options_edit_channels-fill.svg

<svg xmlns="http://www.w3.org/2000/svg" width="48" height="48" viewBox="0 -960 960 960"><path d="M100.001-339.616v-51.923h52.692v51.923h-52.692Zm0-151.922v-51.923h52.692v51.923h-52.692Zm0-151.153v-51.538h52.692v51.538h-52.692ZM251.54-343.078v-45.383H391v45.383H251.54Zm0-151.537v-45.384h506.382v45.384H251.54Zm0-151.153v-45.384h506.382v45.384H251.54Zm382.921 465.767-149.23-151.076 32.615-32.615 117.23 118.461L860.46-470.23l32.615 31.615-258.614 258.614Z"/></svg>

<svg xmlns="http://www.w3.org/2000/svg" width="48" height="48" viewBox="0 -960 960 960"><path d="M100-339.62v-51.92h52.69v51.92H100Zm0-151.92v-51.92h52.69v51.92H100Zm0-151.15v-51.54h52.69v51.54H100Zm151.54 299.61v-45.38H391v45.38H251.54Zm0-151.54V-540h506.38v45.38H251.54Zm0-151.15v-45.38h506.38v45.38H251.54ZM634.46-180 485.23-331.08l32.62-32.61 117.23 118.46 225.38-225 32.61 31.61L634.46-180Z"/></svg>
